assets/img/svg/paymentperson.svg

<svg width="36" height="36" viewBox="0 0 36 36" fill="none" xmlns="http://www.w3.org/2000/svg">
<path d="M21.0609 8.375C19.9809 8.915 16.5732 8.90933 16.3527 8.93188C13.2399 8.91568 12.4632 11.2077 12.4209 14.3066C12.6032 12.8079 13.2403 11.4871 14.6821 11.0328C15.3574 10.8271 16.0161 10.805 16.3021 10.805C16.4659 10.849 16.6214 10.9128 16.7577 10.9569C17.184 11.0293 17.5842 11.0099 17.9981 10.9569C18.1535 10.9133 18.3279 10.8517 18.4621 10.805C18.7481 10.805 19.417 10.8277 20.1074 11.0328C22.0478 11.7253 22.3426 13.5161 22.3602 15.125C22.3629 15.2676 22.2329 15.395 22.0902 15.395C21.9476 15.395 21.8182 15.2676 21.8202 15.125C21.8273 13.5448 21.4762 12.0147 19.9556 11.5475C19.3476 11.3669 18.7161 11.345 18.4621 11.345C18.3586 11.394 18.1888 11.4518 18.0909 11.4884C17.6012 11.575 17.1332 11.548 16.6649 11.4884C16.5252 11.4641 16.4169 11.4003 16.3021 11.345C16.0481 11.345 15.4338 11.3677 14.8424 11.5475C13.2267 12.1298 12.9265 13.8538 12.9102 15.125C12.9129 15.2676 12.7829 15.395 12.6402 15.395C12.4976 15.395 12.3682 15.2676 12.3702 15.125C12.3702 14.984 12.3794 14.8515 12.387 14.72C12.1763 14.788 12.1001 15.0526 12.1001 15.395C12.1001 15.8589 12.6129 16.6079 12.927 16.8125C13.35 18.1163 13.9935 19.5116 14.7663 20.5841L14.412 21.8328C14.2916 21.8847 14.1418 21.9477 14.0154 22.0016L14.8676 24.4906L16.3273 25.4272C16.5316 25.0434 16.7272 24.6319 16.9432 24.2628L15.4245 22.2378L15.6186 21.5628C16.1764 22.0868 16.7739 22.415 17.382 22.415C18.3101 22.4115 18.7626 21.8511 19.3226 21.3519L19.5673 22.2209L17.8376 24.2966C18.0371 24.6565 18.2177 25.0454 18.4029 25.4188L20.0651 24.3809L20.892 21.9172C20.7861 21.8756 20.6756 21.8304 20.5714 21.7906L20.1834 20.4238C21.1017 19.2394 21.6932 17.8104 21.9721 16.8716C22.2402 16.8716 22.9002 15.935 22.9002 15.395C22.9002 14.9404 22.8011 14.6071 22.394 14.7116C22.3986 14.6698 22.4069 14.6258 22.4107 14.585C22.379 10.6153 22.1821 9.49699 21.0609 8.375ZM15.5259 14.585C15.9609 14.585 16.3446 14.6524 16.6481 14.8719C16.8934 15.0494 17.0483 15.3235 17.1121 15.665H17.6774C17.7413 15.3235 17.8961 15.0494 18.1415 14.8719C18.4449 14.6524 18.8371 14.585 19.2721 14.585C20.0967 14.588 20.5511 14.6235 20.8668 14.8803C21.1325 15.2028 21.1675 15.5972 21.1621 15.9434C21.1581 16.4637 20.7896 16.8216 20.4027 17.015C20.0137 17.2095 19.5871 17.285 19.2721 17.285C18.8311 17.285 18.4337 17.2179 18.1246 16.9981C17.8806 16.8246 17.7241 16.5431 17.669 16.205H17.129C17.0716 16.5431 16.909 16.8246 16.6649 16.9981C16.3558 17.2179 15.9669 17.285 15.5259 17.285C15.2109 17.285 14.7758 17.2095 14.3868 17.015C14 16.8216 13.64 16.4636 13.6359 15.9434C13.6224 15.7471 13.6415 15.5444 13.6526 15.3781C13.6835 15.1985 13.7648 15.0087 13.9226 14.8803C14.2383 14.6235 14.7013 14.588 15.5259 14.585ZM21.8877 22.3306L19.6181 28.625H22.0396L22.7906 22.8791C22.9002 22.9515 22.1687 22.4498 21.8877 22.3306ZM13.0284 22.4234C12.652 22.5816 12.2989 22.7289 11.9231 22.8875C12.2654 24.6549 12.479 26.7455 12.7246 28.6251H15.2643L13.0284 22.4234ZM23.8368 23.1913L23.1281 28.625H27.7602L27.2202 26.465C27.2202 25.3854 26.6802 24.5749 26.1402 24.305C25.8732 24.1715 24.9665 23.7166 23.8368 23.1913ZM10.9443 23.3009C10.0007 23.709 9.20305 24.0765 8.86023 24.305C8.38271 24.6303 7.78023 25.3854 7.78023 26.465L7.24023 28.625H11.6362L10.9443 23.3009ZM17.3737 25.7563L17.0193 26.4397C16.8832 26.7053 16.5042 26.8094 16.2515 26.6506L15.6102 26.2372L16.4202 28.625H18.4621L19.3312 26.1191L18.479 26.6506C18.2242 26.8082 17.8443 26.6996 17.7112 26.4313L17.3737 25.7563Z" fill="#1C62AE"/>
</svg>

<svg width="36" height="36" fill="none" xmlns="http://www.w3.org/2000/svg"><path d="M21.06 8.375c-1.08.54-4.487.534-4.707.557-3.113-.016-3.89 2.276-3.932 5.375.182-1.5.82-2.82 2.261-3.274a5.783 5.783 0 011.62-.228c.164.044.32.108.456.152.426.072.826.053 1.24 0 .155-.044.33-.105.464-.152.286 0 .955.023 1.645.228 1.94.692 2.236 2.483 2.253 4.092a.277.277 0 01-.27.27.277.277 0 01-.27-.27c.007-1.58-.344-3.11-1.864-3.578a5.588 5.588 0 00-1.494-.202c-.103.049-.273.107-.371.143-.49.087-.958.06-1.426 0-.14-.024-.248-.088-.363-.143-.254 0-.868.023-1.46.202-1.615.583-1.915 2.307-1.932 3.578a.277.277 0 01-.27.27.277.277 0 01-.27-.27c0-.141.01-.274.017-.405-.21.068-.287.333-.287.675 0 .464.513 1.213.827 1.418.423 1.303 1.066 2.699 1.84 3.771l-.355 1.249-.397.169.853 2.489 1.46.936c.204-.384.4-.795.615-1.164l-1.519-2.025.195-.675c.557.524 1.155.852 1.763.852.928-.003 1.38-.564 1.94-1.063l.245.869-1.73 2.076c.2.36.38.748.566 1.122l1.662-1.038.827-2.464c-.106-.041-.216-.087-.32-.126l-.389-1.367c.919-1.185 1.51-2.614 1.79-3.552.267 0 .927-.937.927-1.477 0-.455-.099-.788-.506-.683.005-.042.013-.086.017-.127-.032-3.97-.229-5.088-1.35-6.21zm-5.534 6.21c.435 0 .819.067 1.122.287.245.177.4.451.464.793h.565c.064-.341.22-.616.465-.793.303-.22.695-.287 1.13-.287.825.003 1.28.038 1.595.295.265.323.3.717.295 1.063-.004.52-.372.879-.76 1.072-.388.194-.815.27-1.13.27-.44 0-.838-.067-1.147-.287-.244-.173-.4-.455-.456-.793h-.54c-.057.338-.22.62-.464.793-.31.22-.698.287-1.14.287a2.67 2.67 0 01-1.138-.27c-.387-.193-.747-.551-.751-1.072-.014-.196.006-.399.017-.565.03-.18.112-.37.27-.498.315-.257.778-.292 1.603-.295zm6.362 7.746l-2.27 6.294h2.422l.75-5.746c.11.072-.621-.43-.902-.548zm-8.86.092c-.376.159-.73.306-1.105.465.342 1.767.556 3.857.802 5.737h2.54l-2.237-6.202zm10.809.768l-.709 5.434h4.632l-.54-2.16c0-1.08-.54-1.89-1.08-2.16-.267-.133-1.174-.588-2.303-1.114zm-12.893.11c-.943.408-1.741.776-2.084 1.004-.477.325-1.08 1.08-1.08 2.16l-.54 2.16h4.396l-.692-5.324zm6.43 2.455l-.355.684a.563.563 0 01-.767.21l-.642-.413.81 2.388h2.042l.87-2.506-.853.532a.563.563 0 01-.768-.22l-.337-.675z" fill="#1C62AE"/></svg>
